X: 1
T: Angus Campbell
T: Laird of Drumblair (Reel)
C: James Scott Skinner
R: Reel
L: 1/8
M: 4/4
K: A
Z: ABC transcription by Verge Roller
r: 16
E | "A" A1/2A1/2A cA EAce | "A" a2 ga "D" fa"A"ec | "D" d1/2d1/2d Bd "A" c1/2c1/2c Ac | "Bm" BFBA "E7" GEFG |
"A" A1/2A1/2A cA EAce | "A" a2 ga "D" fa"A"ec | "D" defd "A" ceaf | "E7" ecdB  "A" Aefg |
"A" a2 ea caAa |  "A" cAce aAca | "Bm" b2 fb dbBb | "Bm" dBdf "E7" bBdb |
"A" a2 ea caAa | "A" cAce aecA | "D" defd "A" ceaf | "E7" ecdB "A" A3 |]
